svg/fluentui-system-icons/ic_fluent_conference_room_24_filled.svg

<svg width="24" height="24" viewBox="0 0 24 24" fill="none" xmlns="http://www.w3.org/2000/svg">
<path d="M10.5981 2.00988L19.5981 4.00988C19.8318 4.05662 20 4.26183 20 4.50017V19.5002C20 19.7385 19.8318 19.9437 19.5981 19.9905L10.5981 21.9905C10.2887 22.0523 10 21.8157 10 21.5002V2.50017C10 2.18465 10.2887 1.948 10.5981 2.00988ZM9 4.00017V20.0002H4.75C4.3703 20.0002 4.05651 19.718 4.00685 19.3519L4 19.2502V4.75017C4 4.37047 4.28215 4.05668 4.64823 4.00702L4.75 4.00017H9ZM13 11.0002C12.4477 11.0002 12 11.4479 12 12.0002C12 12.5525 12.4477 13.0002 13 13.0002C13.5523 13.0002 14 12.5525 14 12.0002C14 11.4479 13.5523 11.0002 13 11.0002Z" fill="#212121"/>
</svg>

<svg xmlns="http://www.w3.org/2000/svg" width="24" height="24"><path d="m10.598 2.01 9 2A.5.5 0 0 1 20 4.5v15a.5.5 0 0 1-.402.49l-9 2A.5.5 0 0 1 10 21.5v-19a.5.5 0 0 1 .598-.49ZM9 4v16H4.75a.75.75 0 0 1-.743-.648L4 19.25V4.75a.75.75 0 0 1 .648-.743L4.75 4H9Zm4 7a1 1 0 1 0 0 2 1 1 0 0 0 0-2Z"/></svg>
